X: 883
T: Gönül Seni
C: Sadettin Kaynak
O: Turkey
F: http://compmusic.upf.edu/node/140
N: acemasiran--sarki--duyek--gonul_seni--sadettin_kaynak
N: makam= acemasiran
N: form= sarki
N: usul= duyek = 8/4
M: 8/4
L: 1/16
K: C _B   
Q: 1/4=168
%%MIDI tuningsystem comma53
z2 f4 e2 f3e g3f  | e2 e4 d2 e3d f3e  | \
w:   |   | 
d2 c'2 a2 f2 c2 d2 e2 g2  | 
w:   | 
f12 z4  | e2 f4 e2 f4 z4  | f2 e4 d2 d2 cd e4  | \
w:   |   |   | 
z2 c6 c4 d2 c2  | B2 A4 G2 F4 f2 f2  | 
w:   |   | 
z2 c'6 a4 f4  | f2 b6 g4 e4  | e2 d2 e2 f2 g4 a2 gf  | \
w:   |   |   | 
e2 f6 f4 z4  | z2 ef ge fg a2 c'2 a2 f2  | 
w:   |   | 
z2 b2 a2 g2 af ge f4  | z2 b2 a2 g2 f2 e2 a4  | \
w:   |   | 
d8 c4 f4  | z2 e6 d3B A3c  | 
w:   |   | 
c8 (3cBc (3dcd (3ede f2  | z2 c2 d2 e2 f4 z4  | \
w:   |   | 
z2 B2 A2 B2 G8  | 
w:   | 
z2 c6 A4 F4  | F2 B6 G4 E4  | E2 D2 E2 F2 G4 A4  | \
w:   |   |   | 
E2 F6 F4 z4  | z2 ef ge fg a2 c'2 a2 f2  | 
w:   |   | 
z2 b2 a2 g2 af ge f4  | z2 b2 a2 g2 f2 e2 a4  | \
w:   |   | 
d8 c4 f4  | z2 e6 d3B A3c  | 
w:   |   | 
c8 (3cBc (3dcd (3ede f2  | z2 c2 d2 e2 f4 z4  | \
w:   |   | 
z2 B2 A2 B2 G8  | 
w:   | 
z2 c6 A4 F4  | F2 B6 G4 E4  | E2 D2 E2 F2 G4 A4  | \
w:   |   |   | 
E2 F6 F4 z4  | z2 f4 e2 f3e g3f  | 
w:   |   | 
e2 e4 d2 e3d f3e  | d2 c'2 a2 f2 c2 d2 e2 g2  | \
w:   |   | 
f12 z4  | e2 f4 e2 f6 e2  | 
w:   |   | 
f2 e4 fe d2 d^c d4  | z2 g4 g2 g2 _7/8a2 g2 f2  | \
w:   |   | 
g2 _1/4b2 _7/8a2 g2 gf fe f4  | 
w:   | 
e2 f4 e2 e3d d3c  | c2 _7/8d2 c2 dc cB BA B4  | \
w:   |   | 
z2 A6 ^G2 A2 B2 c2  | 
w:   | 
B8 z2 f2 _e2 d2  | c3B A3c c8  | z2 c'6 a4 f4  | \
w:   |   |   | 
z2 b6 g4 e4  | e2 d2 e2 f2 g4 a2 gf  | 
w:   |   | 
e2 f6 f4 z4  | |


